X:41
T: schotense schottische
C: j.vervoort
M: 4/4
L: 1/8
R: schottische
K: Amin
|:A2A2 c4|c2Bc d2cd|e2e3ze2|e2dc B2G2|
A2A2 c4|c2Bc d2cd|e2e3ze2|e2dc A2z2:||
|:a2a3za2|a2gf e2d2|e2e3ze2|e2dc B2G2|
a2a3za2|a2gf e2d2|e2e3ze2|e2dc A2z2:||



